src/img/logo+tips.svg

<svg width="69" height="55" viewBox="0 0 69 55" fill="none" xmlns="http://www.w3.org/2000/svg">
<g clip-path="url(#clip0_430_11019)">
<path d="M6.32197 35.5731C7.0958 35.5731 7.99164 35.352 7.99164 34.293V31.7818H10.6192C11.634 31.7818 11.8475 30.8585 11.8475 30.0829C11.8475 29.3073 11.634 28.3839 10.6192 28.3839H7.96724V26.0449C7.96724 25.0278 7.05817 24.8138 6.29757 24.8138C5.53696 24.8138 4.60248 25.0278 4.60248 26.0449V28.4084H1.99933C0.942825 28.4084 0.722168 29.3317 0.722168 30.1073C0.722168 30.8829 0.942825 31.7818 1.99933 31.7818H4.62688V34.293C4.62688 35.352 5.54815 35.5731 6.32197 35.5731Z" fill="#56504C"/>
<path d="M15.4624 41.5179C18.1875 41.5179 20.0901 40.5874 20.0901 39.2523C20.0982 38.8181 20.0097 38.5001 19.8348 38.3218C19.6782 38.1628 19.4901 38.1465 19.4179 38.1465C19.2969 38.1465 19.1464 38.1811 18.9847 38.2219L18.9471 38.2382C18.1346 38.5806 17.3679 38.9017 16.3511 38.9017C14.7607 38.9017 13.8486 37.8611 13.8486 36.0429V23.4236H18.1804C19.0142 23.4236 19.2023 22.3046 19.2023 21.9132C19.2023 21.7542 19.2023 21.266 18.3685 21.266H13.8486V17.6256C13.8486 16.7787 13.0738 16.6013 12.423 16.6013C11.8902 16.6013 10.9974 16.7338 10.9974 17.6256V21.266H8.65657C8.36575 21.266 7.82275 21.266 7.82275 22.3443C7.82275 23.4226 8.36575 23.4226 8.65657 23.4226H10.8631V27.0895C12.2349 27.2761 13.0697 28.4267 13.0697 30.1909C13.0697 31.955 12.2359 33.0812 10.8631 33.2647V36.9856C10.8631 39.823 12.5826 41.5158 15.4634 41.5158L15.4624 41.5179Z" fill="#56504C"/>
<path d="M26.2246 13.5C25.7813 13.5 24.7451 13.605 24.7451 14.5783V16.3312C24.7451 17.2699 25.6735 17.4095 26.2246 17.4095C26.911 17.4095 27.7316 17.223 27.7316 16.3312V14.5783C27.7316 13.6855 26.9141 13.5 26.2246 13.5Z" fill="#56504C"/>
<path d="M26.2246 20.997C25.7813 20.997 24.7451 21.102 24.7451 22.0753V40.2236C24.7451 41.1622 25.6735 41.3019 26.2246 41.3019C26.911 41.3019 27.7316 41.1154 27.7316 40.2236V22.0753C27.7316 21.1825 26.9141 20.997 26.2246 20.997Z" fill="#56504C"/>
<path d="M44.6552 20.7809C42.6642 20.7809 41.078 21.4057 39.2202 22.3403L38.0365 23.0883V21.9683C38.0365 21.1162 37.038 21.0245 36.6109 21.0245C36.1076 21.0245 35.2656 21.1458 35.2656 21.9683V48.4217C35.2656 49.3604 36.194 49.5 36.7451 49.5C37.4315 49.5 38.2521 49.3135 38.2521 48.4217V40.1624L39.21 40.6129C40.418 41.1816 41.7338 41.4945 43.1198 41.5454C48.2691 41.5454 51.0055 37.8805 51.0055 30.9481C50.9841 24.1065 48.9067 20.782 44.6563 20.782L44.6552 20.7809ZM42.6378 39.2798H42.6246C41.1613 39.2503 39.7032 38.7865 38.5185 37.9743L38.2257 37.7745V25.0686L38.546 24.8719C40.0011 23.974 41.263 23.2891 43.1493 23.2891C46.2192 23.2891 47.777 25.8564 47.777 30.9206C47.777 38.1934 44.5566 39.2798 42.6378 39.2798Z" fill="#56504C"/>
<path d="M55.6487 39.6487C56.4184 40.2235 58.5304 41.5444 61.7396 41.5444C65.8345 41.5444 68.278 39.4979 68.278 36.0704C68.2515 32.9181 65.5071 31.6075 62.8541 30.3397C60.5641 29.2471 58.4043 28.2147 58.4043 26.0113C58.4043 24.1798 59.7842 23.0445 62.0101 23.0445C63.8852 23.0445 65.08 23.8537 65.6586 25.52C65.8091 25.9736 66.2341 26.2752 66.6947 26.2559C67.2815 26.2559 68.1183 26.0316 68.1183 25.4201C68.1183 25.3233 68.1183 25.1908 68.1051 25.1205C67.6557 22.3137 65.4847 20.7819 61.9847 20.7819C57.9915 20.7819 55.608 22.8478 55.608 26.3099C55.608 29.772 58.6453 31.2875 61.3278 32.5818C63.3808 33.5714 65.321 34.507 65.321 36.314C65.321 38.121 63.933 39.3073 61.6084 39.3073C59.6713 39.3073 57.7098 38.439 56.5211 37.6277L56.4805 37.5982C56.3432 37.4871 56.1469 37.4229 55.9588 37.4229C55.5053 37.4229 55.1342 38.1719 55.125 38.6703C55.1474 39.0607 55.3457 39.4235 55.6517 39.6477L55.6487 39.6487Z" fill="#56504C"/>
</g>
<defs>
<clipPath id="clip0_430_11019">
<rect width="67.5556" height="36" fill="white" transform="translate(0.722168 13.5)"/>
</clipPath>
</defs>
</svg>

<svg width="69" height="55" fill="none" xmlns="http://www.w3.org/2000/svg"><g clip-path="url(#clip0_430_11019)" fill="#56504C"><path d="M6.322 35.573c.774 0 1.67-.221 1.67-1.28v-2.511h2.627c1.015 0 1.229-.924 1.229-1.7 0-.775-.214-1.698-1.229-1.698H7.967v-2.34c0-1.016-.909-1.23-1.67-1.23-.76 0-1.695.214-1.695 1.23v2.364H2c-1.056 0-1.277.924-1.277 1.7 0 .775.22 1.674 1.277 1.674h2.628v2.511c0 1.059.921 1.28 1.695 1.28z"/><path d="M15.462 41.518c2.726 0 4.628-.93 4.628-2.266.008-.434-.08-.752-.255-.93a.59.59 0 00-.417-.175c-.121 0-.272.034-.433.075l-.038.016c-.812.343-1.58.664-2.596.664-1.59 0-2.502-1.04-2.502-2.86V23.425h4.331c.834 0 1.022-1.12 1.022-1.51 0-.16 0-.648-.834-.648h-4.52v-3.64c0-.847-.774-1.025-1.425-1.025-.533 0-1.426.133-1.426 1.025v3.64h-2.34c-.291 0-.834 0-.834 1.078 0 1.079.543 1.079.834 1.079h2.206v3.667c1.372.186 2.207 1.337 2.207 3.1 0 1.765-.834 2.891-2.207 3.075v3.72c0 2.838 1.72 4.53 4.6 4.53v.003zM26.225 13.5c-.444 0-1.48.105-1.48 1.078v1.753c0 .939.928 1.079 1.48 1.079.686 0 1.507-.187 1.507-1.079v-1.753c0-.893-.818-1.078-1.507-1.078zm0 7.497c-.444 0-1.48.105-1.48 1.078v18.149c0 .938.928 1.078 1.48 1.078.686 0 1.507-.187 1.507-1.078V22.075c0-.892-.818-1.078-1.507-1.078zm18.43-.217c-1.99 0-3.577.626-5.435 1.56l-1.184.748v-1.12c0-.852-.998-.944-1.425-.944-.503 0-1.345.122-1.345.944v26.454c0 .938.928 1.078 1.48 1.078.685 0 1.506-.187 1.506-1.078v-8.26l.958.45a9.983 9.983 0 003.91.933c5.15 0 7.886-3.665 7.886-10.597-.022-6.841-2.1-10.166-6.35-10.166v-.001zm-2.017 18.5h-.013a7.608 7.608 0 01-4.106-1.306l-.293-.2V25.07l.32-.197c1.455-.898 2.717-1.583 4.603-1.583 3.07 0 4.628 2.567 4.628 7.632 0 7.272-3.22 8.359-5.14 8.359zm13.011.369c.77.575 2.881 1.895 6.09 1.895 4.096 0 6.539-2.046 6.539-5.474-.027-3.152-2.77-4.462-5.424-5.73-2.29-1.093-4.45-2.125-4.45-4.329 0-1.831 1.38-2.966 3.606-2.966 1.875 0 3.07.809 3.649 2.475.15.454.575.755 1.036.736.587 0 1.423-.224 1.423-.836 0-.097 0-.23-.013-.3-.45-2.806-2.62-4.338-6.12-4.338-3.993 0-6.377 2.066-6.377 5.528 0 3.462 3.037 4.978 5.72 6.272 2.053.99 3.993 1.925 3.993 3.732 0 1.807-1.388 2.993-3.713 2.993-1.937 0-3.898-.868-5.087-1.68l-.04-.029a.854.854 0 00-.522-.175c-.454 0-.825.749-.834 1.247.022.39.22.753.527.978h-.003z"/></g><defs><clipPath id="clip0_430_11019"><path fill="#fff" transform="translate(.722 13.5)" d="M0 0h67.556v36H0z"/></clipPath></defs></svg>
